assets/img/SVG/Slack.svg

<?xml version="1.0" encoding="UTF-8" standalone="no"?>
<svg width="23px" height="23px" viewBox="0 0 23 23" version="1.1" xmlns="http://www.w3.org/2000/svg" xmlns:xlink="http://www.w3.org/1999/xlink">
    <!-- Generator: Sketch 3.8.3 (29802) - http://www.bohemiancoding.com/sketch -->
    <title>Slack</title>
    <desc>Created with Sketch.</desc>
    <defs></defs>
    <g id="Welcome" stroke="none" stroke-width="1" fill="none" fill-rule="evenodd">
        <g id="Upcoming-Events-Desktop-HD" transform="translate(-248.000000, -2656.000000)" fill="#FFFFFF">
            <g id="Footer" transform="translate(0.000000, 2606.000000)">
                <g id="Slack" transform="translate(248.000000, 50.000000)">
                    <g id="Group-2">
                        <path d="M10.0228723,14.2664815 L10.0228723,14.2664815 L10.0228723,14.2664815 L8.5728463,9.95842191 L8.5730025,9.95842191 L8.5728463,9.95810951 C10.2618618,9.3815668 11.6717438,8.90015129 12.849353,8.49808656 L14.3040651,12.8191109 L10.0228723,14.2664815 Z M22.899878,11.9838972 C22.6310538,11.1882027 21.8690989,10.6583644 21.0018637,10.6649249 C20.7833367,10.6669556 20.5660593,10.7028821 20.3556548,10.7731731 L18.0974381,11.53669 L16.6389771,7.20457527 C18.7669212,6.47792214 18.8109702,6.46292672 18.8112826,6.46277052 C19.718037,6.15817602 20.4748372,5.2078412 20.1702427,4.14316628 L20.1458751,4.06444032 C19.8712715,3.24937669 19.124312,2.72672378 18.243331,2.73359668 C18.0458913,2.7348463 17.8465772,2.76374372 17.6486689,2.82044516 L15.4149759,3.56881041 L14.6728587,1.36448347 C14.5018172,0.858075597 14.1439577,0.448044545 13.6655101,0.209836029 C13.3793474,0.068472943 13.075534,-0.00228670134 12.7615673,5.63332371e-05 C12.5502256,0.0019307609 12.3402897,0.0375448865 12.1372267,0.105805294 C11.1223803,0.447888343 10.556147,1.52162299 10.8505883,2.55099618 L10.8777675,2.64159352 L11.6181664,4.84076578 L7.33353721,6.27626497 L6.59532511,4.08302839 C6.31853463,3.26140427 5.54939447,2.71360278 4.68075345,2.72047568 C4.46972414,2.72219391 4.26056925,2.75765183 4.05828727,2.82481882 C3.04375329,3.16721428 2.47923816,4.24110513 2.77289849,5.27016592 C2.78195823,5.30062537 2.79133037,5.3303038 2.80070251,5.35998224 L3.53719638,7.54806414 L1.36614053,8.27549827 C0.350981749,8.61789373 -0.21540781,9.68725471 0.0766905009,10.7094426 C0.0852816277,10.7395896 0.0941851591,10.7695805 0.104494511,10.8005085 C0.372537667,11.5987023 1.0995032,12.1101087 1.95767866,12.1035482 C2.18011075,12.1016737 2.40238663,12.0644976 2.61903922,11.9909263 C3.37537079,11.7327239 4.09608822,11.4865491 4.78337837,11.2519332 L6.23012412,15.5487462 L4.07250168,16.278211 C3.05390644,16.621075 2.48814169,17.7016826 2.78430126,18.7360543 C2.79289239,18.7663575 2.80242073,18.7965046 2.81241768,18.8264954 C3.07733679,19.6132864 3.80680155,20.1175075 4.67169372,20.1112594 C4.90334174,20.1095411 5.13561457,20.0693971 5.36335753,19.9933266 L7.4820856,19.2688603 L8.23357489,21.5013037 C8.51052158,22.3237088 9.28013034,22.8716665 10.1486152,22.8649498 C10.3587073,22.8630754 10.5675497,22.8279299 10.7693631,22.7606067 C11.7854591,22.4182112 12.3502867,21.3436955 12.0560015,20.3138537 C12.0477228,20.2841753 12.0385068,20.2530911 12.0283537,20.2249746 L11.2706163,17.9734746 L15.547123,16.5112648 L16.3120457,18.7835398 C16.5888362,19.6048515 17.3578202,20.1528092 18.226305,20.1460925 C18.4374905,20.144218 18.6468016,20.1090725 18.8478339,20.0420617 C19.8626803,19.6999787 20.4276641,18.6256192 20.1224448,17.5568831 L19.3359662,15.2157229 L21.7083668,14.4045643 C21.7083668,14.4045643 22.4434548,14.0852868 22.6765087,13.7225851 C22.9892257,13.2347653 23.082166,12.6166727 22.9248703,12.0666844 L22.899878,11.9838972 Z" id="Fill-1"></path>
                    </g>
                </g>
            </g>
        </g>
    </g>
</svg>

<svg width="23" height="23" viewBox="0 0 23 23" xmlns="http://www.w3.org/2000/svg"><title>Slack</title><path d="M10.023 14.266l-1.45-4.308 4.276-1.46 1.455 4.321-4.281 1.447zM22.9 11.984c-.269-.796-1.03-1.326-1.898-1.32a2.097 2.097 0 0 0-.646.11l-2.259.763-1.458-4.332 2.172-.742c.907-.305 1.664-1.255 1.36-2.32l-.025-.079c-.275-.815-1.022-1.337-1.903-1.33-.197 0-.396.03-.594.086l-2.234.749-.742-2.205A1.995 1.995 0 0 0 13.666.21a1.99 1.99 0 0 0-1.529-.104 1.998 1.998 0 0 0-1.286 2.445l.027.09.74 2.2-4.284 1.435-.739-2.193a1.999 1.999 0 0 0-2.537-1.258A1.999 1.999 0 0 0 2.773 5.27l.028.09.736 2.188-2.17.727a1.993 1.993 0 0 0-1.263 2.526c.269.798.996 1.31 1.854 1.303a2.13 2.13 0 0 0 .661-.113c.756-.258 1.477-.504 2.164-.74L6.23 15.55l-2.157.73a2.006 2.006 0 0 0-1.26 2.547c.264.787.994 1.292 1.859 1.285a2.21 2.21 0 0 0 .691-.118l2.12-.724.75 2.232a2 2 0 0 0 2.536 1.26 1.999 1.999 0 0 0 1.26-2.536l-.758-2.252 4.276-1.462.765 2.273a2 2 0 0 0 2.536 1.258c1.015-.342 1.58-1.416 1.274-2.485l-.786-2.341 2.372-.811s.735-.32.969-.682a2.06 2.06 0 0 0 .248-1.656l-.025-.083z" fill="#FFF" fill-rule="evenodd"/></svg>
